!!!SOCIAL_FUNCTION:	songs connected with ceremonies
!!!PDT:	1929
!!!OTL: No_110_A_Blue_Wind.krn
!!!REG: Southwest
!!!LANG: Non-Tone
!!!LING_GROUP: Uto-Aztecan
**kern
*staff1
=1-
*clefF4
*k[f#c#]
*M2/4
2D\
=2||
*M3/4
4D\
4D\
4d\
=3
(2.d\
=4
4B\)
4A\
4B\
=5||
*M2/4
2A\
=6
4F#\
4E\
=7
2D\
=8||
*M3/4
4D\
4E\
4E\
=9||
*M2/4
[2E\
=10
2E\]
=11||
*M3/4
4E\
4r
4E\
=12||
*M2/4
2E\
=13
4E\
4A\
=14
4.A\
8G\
=15||
*M3/4
4A\
4A\
8G\L
8E\J
=16||
*M2/4
2D\
=17||
*M3/4
4D\
4E\
4E\
=18||
*M2/4
[2D\
=19
4.D\]
8E\
=20
4D\
4BB/
=21
2AA/
=22
2D\
=23||
*M3/4
2D\
4r
=24||
*M2/4
4D\
4BB/
=25
2E\
=26||
*M3/4
4C#/
4E\
8E\L
8D\J
=27||
*M2/4
2E\
=28
4E\
4D\
=29
4BB/
4F#;\
=30
8A\L
8A\J
4A\
=31
2A\
=32
8G\L
8E\J
4E\
=33
2D\
=34||
*M3/4
4D\
4E\
4E\
=35||
*M2/4
2D\
=36
4D\
4E\
=37
4D\
4BB/
=38
2AA/
=39
2D\
=40
2D\
==
*-
